!!!COM: Bach, Johann Sebastian
!!!OPR: Joh. Seb. Bachs vierstimmige Choralgesänge
!!!XEN: Four-part Chorales
!!!OTL: Chorale 23. Christe, du Beistand
!!!SCT: BWV 275
!!!SCA: Thematisch-systematisches Verzeichnis der musikalischen Werke Johann Sebastian Bach: Bach-Werke-Verzeichnis (Schmieder)
!!!YOR: Bach Gesellschaft Edition xxxix
!!!ENC: Steven Rasmussen
!!!CDT: 1685/3//-1750/7/28/
!!!OCY: Deutschland
!!!YEC: Copyright (c) 1994, 2000 Center for Computer Assisted Research in the Humanities
!!!YEM: Rights to all derivative editions reserved
!!!YEN: United States of America
**kern	**kern	**kern	**kern	**silbe
*I:[BASSO]	*I:[TENORE]	*I:[ALTO]	*I:[SOPRANO]	*I:[SOPRANO]
*clefF4	*clefGv2	*clefG2	*clefG2	*
*k[]	*k[]	*k[]	*k[]	*
*a:	*a:	*a:	*a:	*
*M4/4	*M4/4	*M4/4	*M4/4	*
8DL	8FL	4A	4d	Chri-
8EJ	8GJ	.	.	.
=1	=1	=1	=1	=1
8FL	4A	4A	4d	-ste,
8EJ	.	.	.	.
8DL	4A	4e	4e	du
8C#J	.	.	.	.
8DL	2A	4e	2f	Bei-
8E	.	.	.	.
8F	.	4d	.	.
8DJ	.	.	.	.
=2	=2	=2	=2	=2
2AA;	2A;	2c#;	2e;	-stand
8CL	4A	4e	4a	dei-
8BBJ	.	.	.	.
8AAL	4e	4e	4b	-ner
8GG#J	.	.	.	.
=3	=3	=3	=3	=3
8AAL	4e	4a	4cc	Kreuz-
8CJ	.	.	.	.
8FL	8dL	4a	8ddL	-ge-
8EJ	8eJ	.	8ccJ	.
8DL	4f	4a	2b	-mei-
8BBJ	.	.	.	.
4E	8eL	4g#	.	.
.	8dJ	.	.	.
=4	=4	=4	=4	=4
2AA;	2c;	2e;	2a;	-ne,
4r	4r	4r	4r	.
4AA	4e	4a	4cc	ei-
=5	=5	=5	=5	=5
8DL	8fL	8aL	4b	-le,
8EJ	16eL	8gJ	.	.
.	16dJJ	.	.	.
4F	4c	8fL	4a	mit
.	.	8eJ	.	.
4F	4B	4d	4g	Hülf'
4E	4c	4g	4g	und
=6	=6	=6	=6	=6
4F	4c	8gL	4a	Ret-
.	.	8fJ	.	.
4C	4c	8fL	4g	-tung
.	.	8eJ	.	.
4D	4A	8eL	4f	uns
.	.	8dJ	.	.
8AAL	4A	8cL	4f	er-
8BB-J	.	8dJ	.	.
=7	=7	=7	=7	=7
2C	8GL	2c	2e	-schei-
.	8AJ	.	.	.
.	4B-	.	.	.
4FF;	4A;	4c;	4f;	-ne;
4AA	4A	8c#L	4e	steu-
.	.	8dJ	.	.
=8	=8	=8	=8	=8
4C#	4A	4e	4e	-re
8DL	4A	8eL	4f	den
8CnJ	.	8dJ	.	.
8BBL	2G	8dL	2g	Fein-
8AA	.	8c	.	.
8BB	.	8d	.	.
8GGJ	.	8BJ	.	.
=9	=9	=9	=9	=9
2C;	2G;	2c;	2e;	-den:
4C	4e	4a	4a	ih-
4D	4f	4a	4b	-re
=10	=10	=10	=10	=10
4E	4e	8aL	4cc	Blut-
.	.	8g#J	.	.
8FL	8dL	4a	8ddL	-ge-
8EJ	8eJ	.	8ccJ	.
4D	4f	4a	2b	-tich-
4E	8eL	4g#	.	.
.	8dJ	.	.	.
=11	=11	=11	=11	=11
2AA;	2c;	2e;	2a;	-te
4r	4r	4r	4r	.
4AA	4A	4c	4f#	ma-
=12	=12	=12	=12	=12
4BB-	4.G	4d	4g	-che
4BBn	.	4d	4g	zu
.	8F	.	.	.
4C	8E-L	4e-	4g	nich-
.	8B-	.	.	.
4D	8A	4d	4f#	.
.	8cJ	.	.	.
=13	=13	=13	=13	=13
2GG;	2B-;	2d;	2g;	-te,
4r	4r	4r	4r	.
4AA	4A	4c#	4e	ma-
=14	=14	=14	=14	=14
8DL	4A	4d	4f	-che
8CJ	.	.	.	.
8BB-L	8GL	4d	4g	zu
8GGJ	8B-J	.	.	.
2AA	8AL	4d	2et	nich-
.	8E	.	.	.
.	8A	4c#	.	.
.	8GJ	.	.	.
=15	=15	=15	=15	=15
2.D;	2.F#;	2.A;	2.d;	-te.
==|!	==|!	==|!	==|!	==|!
*-	*-	*-	*-	*-
!!!RWG: Key is interpreted using the Humdrum key tool.
!!!URL-pdf: https://s9.imslp.org/files/imglnks/usimg/6/6b/IMSLP24489-PMLP09471-CCARH_Bach_Chorales.pdf#page=14 Musedata edition
!!!URL-pdf: https://s9.imslp.org/files/imglnks/usimg/7/7a/IMSLP04155-Bach_-_BGA_253-438.pdf#page=13 	Bach-Gesellschaft Ausgabe, Band 39 (pp.175-276) Leipzig: Breitkopf und Härtel, 1892. Plate B.W. XXXIX.
!!!END: 1994/05/11
!!!EMD: Converted from MuseData to Humdrum Dec 19, 2000, by Andreas Kornstaedt using muse2kern.
!!!EED: Craig Stuart Sapp
!!!EEV: 2024/03/31
!!!filter-keyboard: extract -i kern | satb2gs
!!!title: @{OTL} (@{SCT})
